media/logo.svg

<?xml version="1.0" encoding="UTF-8" standalone="no"?>
<svg
   xmlns:dc="http://purl.org/dc/elements/1.1/"
   xmlns:cc="http://creativecommons.org/ns#"
   xmlns:rdf="http://www.w3.org/1999/02/22-rdf-syntax-ns#"
   xmlns:svg="http://www.w3.org/2000/svg"
   xmlns="http://www.w3.org/2000/svg"
   xmlns:sodipodi="http://sodipodi.sourceforge.net/DTD/sodipodi-0.dtd"
   xmlns:inkscape="http://www.inkscape.org/namespaces/inkscape"
   version="1.1"
   id="Layer_1"
   x="0"
   y="0"
   viewBox="0 0 1153 412"
   xml:space="preserve"
   sodipodi:docname="logo.svg"
   inkscape:version="0.92.3 (2405546, 2018-03-11)"><metadata
   id="metadata21"><rdf:RDF><cc:Work
       rdf:about=""><dc:format>image/svg+xml</dc:format><dc:type
         rdf:resource="http://purl.org/dc/dcmitype/StillImage" /><dc:title></dc:title></cc:Work></rdf:RDF></metadata><defs
   id="defs19">
    
    
  
      
      
    
    
  </defs><sodipodi:namedview
   pagecolor="#ffffff"
   bordercolor="#666666"
   borderopacity="1"
   objecttolerance="10"
   gridtolerance="10"
   guidetolerance="10"
   inkscape:pageopacity="0"
   inkscape:pageshadow="2"
   inkscape:window-width="2560"
   inkscape:window-height="1017"
   id="namedview17"
   showgrid="false"
   inkscape:zoom="1.2905464"
   inkscape:cx="762.61461"
   inkscape:cy="160.46991"
   inkscape:window-x="-8"
   inkscape:window-y="-8"
   inkscape:window-maximized="1"
   inkscape:current-layer="Layer_1" />
  <style
   type="text/css"
   id="style2">
    .st0{fill:#675de2}.st2{fill:#372f66}
  </style>
  <path
   style="fill:#675de2"
   d="M 138.09961 13.599609 C 125.79961 13.599609 114.00078 15.500781 102.80078 18.800781 C 118.50078 30.300781 129.09922 47.800391 131.69922 67.900391 C 133.79922 67.700391 135.9 67.300781 138 67.300781 C 175.7 67.300781 206.5 98.100781 206.5 135.80078 L 206.5 327.80078 L 260.19922 327.80078 L 260.19922 135.80078 C 260.29922 68.400781 205.49961 13.599609 138.09961 13.599609 z M 15.900391 134.19922 C 15.900391 134.69922 15.800781 135.30078 15.800781 135.80078 L 15.800781 327.80078 L 69.5 327.80078 L 69.5 148.80078 C 66.4 149.20078 63.399219 149.69922 60.199219 149.69922 C 43.399219 149.69922 28.200391 143.79922 15.900391 134.19922 z M 88.800781 352.5 C 88.800781 379.5 110.99961 401.69922 138.09961 401.69922 C 165.19961 401.69922 187.30078 379.6 187.30078 352.5 L 88.800781 352.5 z "
   id="path4" /><circle
   style="fill:#ef3f5d"
   id="circle10"
   r="43.400002"
   cy="77.199997"
   cx="60.200001" />
  
  <path
   d="M 532.40039 13.5 L 532.40039 222.80078 C 532.40039 281.10078 579.89922 328.59961 638.19922 328.59961 L 675.30078 328.59961 L 675.30078 274.90039 L 638.19922 274.90039 C 609.59922 274.90039 586.09961 251.50078 586.09961 222.80078 L 586.09961 175 L 675.30078 175 L 675.30078 121.30078 L 586.09961 121.30078 L 586.09961 13.5 L 532.40039 13.5 z M 895.5 13.5 C 837.2 13.5 789.69922 61.000781 789.69922 119.30078 L 789.69922 328.59961 L 843.40039 328.59961 L 843.40039 175 L 895.5 175 L 895.5 121.19922 L 843.40039 121.19922 L 843.40039 119.30078 C 843.40039 90.700781 866.8 67.199219 895.5 67.199219 L 895.5 13.5 z M 705.19922 13.599609 L 705.19922 67.400391 L 759 67.400391 L 759 13.599609 L 705.19922 13.599609 z M 396.09961 67.400391 C 337.79961 67.400391 290.30078 114.89922 290.30078 173.19922 L 290.30078 222.80078 C 290.30078 281.10078 337.79961 328.59961 396.09961 328.59961 C 454.39961 328.59961 501.90039 281.10078 501.90039 222.80078 L 501.90039 173.19922 C 501.90039 114.89922 454.39961 67.400391 396.09961 67.400391 z M 1032.1992 67.400391 C 973.89922 67.400391 926.40039 114.89922 926.40039 173.19922 L 926.40039 222.80078 C 926.40039 281.10078 973.89922 328.59961 1032.1992 328.59961 C 1090.4992 328.59961 1138 281.20078 1138 222.80078 L 1138 173.19922 C 1138 114.89922 1090.4992 67.400391 1032.1992 67.400391 z M 396.09961 121.19922 C 424.69961 121.19922 448.19922 144.60078 448.19922 173.30078 L 448.19922 222.90039 C 448.19922 251.50039 424.79961 275 396.09961 275 C 367.39961 275 344 251.60039 344 222.90039 L 344 173.30078 C 344.1 144.60078 367.49961 121.19922 396.09961 121.19922 z M 705.19922 121.19922 L 705.19922 327.80078 L 758.90039 327.80078 L 758.90039 121.19922 L 705.19922 121.19922 z M 1032.1992 121.19922 C 1060.7992 121.19922 1084.3008 144.60078 1084.3008 173.30078 L 1084.3008 222.90039 C 1084.3008 251.50039 1060.8992 275 1032.1992 275 C 1003.5992 275 980.09961 251.60039 980.09961 222.90039 L 980.09961 173.30078 C 980.09961 144.60078 1003.5992 121.19922 1032.1992 121.19922 z "
   id="path16"
   style="fill:#372f66;fill-opacity:1" />
  
  
  
  
  
</svg>

<svg xmlns="http://www.w3.org/2000/svg" version="1.1" id="Layer_1" x="0" y="0" viewBox="0 0 1153 412" xml:space="preserve">
  <style type="text/css" id="style2">
    .st0{fill:#675de2}.st2{fill:#372f66}
  </style>
  <g id="g12">
    <g id="g8">
      <path class="st0" d="M60.2 149.7c-16.8 0-32-5.9-44.3-15.5 0 .5-.1 1.1-.1 1.6v192h53.7v-179c-3.1.4-6.1.9-9.3.9z" id="path4"/>
      <path class="st0" d="M138.1 13.6c-12.3 0-24.1 1.9-35.3 5.2 15.7 11.5 26.3 29 28.9 49.1 2.1-.2 4.2-.6 6.3-.6 37.7 0 68.5 30.8 68.5 68.5v192h53.7v-192c.1-67.4-54.7-122.2-122.1-122.2z" id="path6"/>
    </g>
    <circle cx="60.2" cy="77.2" r="43.4" id="circle10" fill="#ef3f5d"/>
  </g>
  <path class="st0" d="M138.1 401.7c27.1 0 49.2-22.1 49.2-49.2H88.8c0 27 22.2 49.2 49.3 49.2z" id="path14"/>
  <path class="st2" d="M396.1 121.2c28.6 0 52.1 23.4 52.1 52.1v49.6c0 28.6-23.4 52.1-52.1 52.1S344 251.6 344 222.9v-49.6c.1-28.7 23.5-52.1 52.1-52.1m0-53.8c-58.3 0-105.8 47.5-105.8 105.8v49.6c0 58.3 47.5 105.8 105.8 105.8s105.8-47.5 105.8-105.8v-49.6c0-58.3-47.5-105.8-105.8-105.8z" id="path16"/>
  <path class="st2" d="M1032.2 121.2c28.6 0 52.1 23.4 52.1 52.1v49.6c0 28.6-23.4 52.1-52.1 52.1-28.6 0-52.1-23.4-52.1-52.1v-49.6c0-28.7 23.5-52.1 52.1-52.1m0-53.8c-58.3 0-105.8 47.5-105.8 105.8v49.6c0 58.3 47.5 105.8 105.8 105.8S1138 281.2 1138 222.8v-49.6c0-58.3-47.5-105.8-105.8-105.8z" id="path18"/>
  <g id="g22">
    <path class="st2" id="rect20" d="M705.2 121.2h53.7v206.6h-53.7z"/>
  </g>
  <path class="st2" d="M895.5 121.2h-52.1v-1.9c0-28.6 23.4-52.1 52.1-52.1V13.5c-58.3 0-105.8 47.5-105.8 105.8v209.3h53.7V175h52.1v-53.8z" id="path24"/>
  <path class="st2" d="M638.2 274.9c-28.6 0-52.1-23.4-52.1-52.1V175h89.2v-53.7h-89.2V13.5h-53.7v209.3c0 58.3 47.5 105.8 105.8 105.8h37.1v-53.7h-37.1z" id="path26"/>
  <path class="st2" id="rect28" d="M705.2 13.6H759v53.8h-53.8z"/>
</svg>
